X:4
T:We'll all be merry before we go. Ca1758.028
M:C|
L:1/8
Q:1/2=90
B:Cahusac,T. 24 Country Dances for the Year 1758
Z:vmp.Mike Hicken 2015 www.village-music-project.org.uk
N:* There is no repeat sign shown here in the original.
K:G
g(f/g/a)f gedB|g(f/g/a)f e2a2|g(f/g/a)f gedB| gedB A2e2:|
|: BG-G(A B)GdG| BG-GA BdA2|BG-G(A B)def|g>age dB G2 :|
|: gBB/B/B dBgB| gB/B/BB a>bag|gBB/B/B dgdB|egdg Bg A2 "*":|
W:
W: The 1st. Man half figure round the 2d.
W: Man and the 2d. Wo. half figure round
W: the 1st. Wo. at the same time .|  the 1st.
W: Wo. and 2d. Man do the same :|  the
W: 1st. Cu. gallop down two Cu. up again
W: and cast off .|  the 2d. Cu. do the same
W: :|  Cross over half figure .|  Right
W: and Left :|

